X: 13
T: Handsome Young Maidens, The
C: Charlie Lennon
Z: NielsJohnson
S: https://thesession.org/tunes/145#setting54199
R: jig
M: 6/8
L: 1/8
K: Amaj
|:aed cdB|Ace a3|bee dee|Bee bag|
aed cdB|Ace aga|bee dBG|1BAG A2g:|2 BAG A2B||
|:c2A EAc|d2f fed|cde aec|B2f fed|
[1 c2A EAc|d2f fed|cde aec|dBG A2B:|
[2 c2A EAc|d2f fed|ede fef|gfg bag||

%-------------------- TUNE SEPARATOR --------------------%

